X:1
T:Title
%%score { ( 1 4 ) | ( 2 3 ) }
L:1/8
M:4/4
K:F
V:1 treble nm="Grand Piano"
V:4 treble 
V:2 bass 
V:3 bass 
V:1
 z4 z2[Q:1/4=100] F2 | [CA]3 [B,G] [A,F]E F>G | [CA]6 A2 | [DB]3 [DB] [CA]2 _A2 |[M:3/4] [CA]6 | %5
[M:1/4] A2 |[M:4/4] [B,G]3 [A,^F] [B,G]G A>G | F4 z4 | G4 z4 |[M:7/8] [Ec]-[Ec]-[Ec]- [Ec]3 z | %10
[M:1/8] c |[M:4/4] z4 [Ac]4 | A2 F>G (3[C-FA-][CFA-][FA-] A>A | B2 cd c2 A[Af] | e2 d>=B [Ec]3 c | %15
 z4 [Ac]4 | A2 F>G (3[C-FA-][CFA-][FA-] A>A |[M:17/16] [FB]-<[FB][F=B]>[FB][Fc]-<[Fc]F3/2[FG] | %18
[M:4/4] [FA]<[FA] z2 [EB]<[EB]- [EB]>[CE] |[M:3/4] [A,CF]6 |] %20
V:2
 z4 z2 A,2 | F,,C,F,C, z G, A,>B, | F,,C, F,4 C2 | B,,D,F,B, F,2 =B,2 |[M:3/4] F,,C, F,4 | %5
[M:1/4] C2 |[M:4/4] C,E,G,C, z B, C>B, | z2 F,4 z2 | G,,A,,=B,,C, F,D,G,G,, | %9
[M:7/8] C,E,G, G,, C,2 z |[M:1/8][K:treble] A |[M:4/4] A2 F>[K:bass]F, (3F,F,F, z2 | %12
 C2 A,>B, (3F,A,C- C>[F,CF] | [F,DG]2 [F,A,F][F,B,F] [F,A,F]2 [F,CF][F,C] | %14
 [G,CG]2 [G,=B,F]>[G,F][K:bass] [C,G,]3[K:treble] A | A2 F>[K:bass]F, (3F,F,F, F,2 | %16
 C2 A,>B, (3F,A,C- C>[F,CF] | %17
[M:17/16] [D,B,]-<[D,B,][^C,_A,]>[C,A,][=C,=A,]-<[C,A,][D,=B,]3/2[D,B,] | %18
[M:4/4] [C,C]<[C,C] z2 [C,G,]<[C,G,]- [C,G,]>[C,B,] |[M:3/4] [F,,F,]6 |] %20
V:3
 x8 | z4 F,,4 | x8 | x8 |[M:3/4] x6 |[M:1/4] x2 |[M:4/4] z4 C,2 z2 | F,,C, z2 C2 C2 | x8 | %9
[M:7/8] x7 |[M:1/8][K:treble] x |[M:4/4] x7/2[K:bass] x9/2 | z4 z2 F,2 | x8 | %14
 x4[K:bass] x3[K:treble] x | x7/2[K:bass] x9/2 | z4 z2 F,2 |[M:17/16] x17/2 |[M:4/4] x8 | %19
[M:3/4] x6 |] %20
V:4
 x8 | x8 | x8 | x8 |[M:3/4] x6 |[M:1/4] x2 |[M:4/4] x8 | A,6 A2 | =B,CD[EG] [FA]2 [F=B]2 | %9
[M:7/8] x7 |[M:1/8] x |[M:4/4] c2 A>[GB] (3z A,C z2 | z4 z2 F2 | x8 | x8 | c2 A>[GB] (3z A,C z2 | %16
 z4 z2 F2 |[M:17/16] x17/2 |[M:4/4] x8 |[M:3/4] x6 |] %20

